X: 27678
T: Morfa'r Frenhines
R: waltz
M: 3/4
K: Eminor
|:B,2|E2 EF GA|B2 G2 B2|e2 e3 e|d2 B4|e2 B2 G2|A2 AB c2|B2 E2 E2|D4 B,2|
E2 EF GA|B2 G2 B2|e2 egfe|d2 B4|e2 B2 G2|A2 AB c2|B2 EG FG|E4:|
D2|g2 g3 a/g/|f2 f3 g/f/|e2 egfe|d2 B4|e2 B2 G2|A2 AB c2|B2 E2 EF/E/|D4 B,2|
E2 EF GA|B2 G2 B2|e2 egfe|d2 B4|e2 B2 G2|A2 AB c2|B2 EG FG|E4||
|:B,2|EF GA EF|GA Bd c2|eg fe dc|BA GF Ee|B2 G2 AG|AB c2 c2|BA G2 G2|F4 B,2|
EF GA EF|GA Bd c2|eg fe dc|BA GF Ee|B2 G2 AG|AB c2 c2|BA G2 D2|E4:|

